X: 26226
T: Meelick Team, The
R: jig
M: 6/8
K: Edorian
|:A|B2 e dBA|BAF EDE|DEG Eed|BAG AB/c/d|
e2 g dBA|BAF EDB|DE/F/G Eed|1 BAF E2:|2 BAF E3||
|:e2 f gfe|beg fed|Beg be/f/g|fed e2 f|
g2 f edB|BAF DFA|d2 d fed|1 BAF E3:|2 BAF E2||

